T: Willy Taylor's High Tea
M: 4/4
L: 1/8
K: Gmaj
| G2 G2 FGAF | =  | N2 N2 NNNN | | GABc d2 B2 | & | ABAG E2 D2 | & | GABc d2 B2 | = | NNNN N2 N2 || A2 F2 G2 :| = | N2 N2 N2 :|
